local/share/icons/dracula-icons-main/scalable/mimetypes/text-less.svg

<?xml version="1.0" encoding="UTF-8"?>
<svg xmlns="http://www.w3.org/2000/svg" xmlns:xlink="http://www.w3.org/1999/xlink" width="64" height="64" viewBox="0 0 64 64">
<defs>
<filter id="filter-remove-color" x="0%" y="0%" width="100%" height="100%">
<feColorMatrix color-interpolation-filters="sRGB" values="0 0 0 0 1 0 0 0 0 1 0 0 0 0 1 0 0 0 1 0" />
</filter>
<mask id="mask-0">
<g filter="url(#filter-remove-color)">
<rect x="-6.4" y="-6.4" width="76.8" height="76.8" fill="rgb(0%, 0%, 0%)" fill-opacity="0.1"/>
</g>
</mask>
<linearGradient id="linear-pattern-0" gradientUnits="userSpaceOnUse" x1="49.570999" y1="52.714001" x2="51.714001" y2="54.856998" gradientTransform="matrix(0.617345, 0, 0, 0.617345, -18.167916, -19.050025)">
<stop offset="0" stop-color="rgb(0%, 0%, 0%)" stop-opacity="1"/>
<stop offset="1" stop-color="rgb(0%, 0%, 0%)" stop-opacity="0"/>
</linearGradient>
<clipPath id="clip-0">
<rect x="0" y="0" width="17" height="17"/>
</clipPath>
<g id="source-4073" clip-path="url(#clip-0)">
<path fill-rule="evenodd" fill="url(#linear-pattern-0)" d="M 14.816406 12.171875 L 11.113281 15.875 L 13.492188 15.875 C 14.226562 15.875 14.816406 15.285156 14.816406 14.550781 Z M 14.816406 12.171875 "/>
</g>
</defs>
<path fill-rule="nonzero" fill="rgb(95.686275%, 95.686275%, 95.686275%)" fill-opacity="1" d="M 3.441406 1.058594 L 13.492188 1.058594 C 14.222656 1.058594 14.816406 1.652344 14.816406 2.382812 L 14.816406 14.550781 C 14.816406 15.28125 14.222656 15.875 13.492188 15.875 L 3.441406 15.875 C 2.707031 15.875 2.117188 15.28125 2.117188 14.550781 L 2.117188 2.382812 C 2.117188 1.652344 2.707031 1.058594 3.441406 1.058594 Z M 3.441406 1.058594 "/>
<g mask="url(#mask-0)">
<use xlink:href="#source-4073"/>
</g>
<path fill-rule="nonzero" fill="rgb(13.72549%, 30.196078%, 72.156863%)" fill-opacity="1" d="M 4.695312 10.421875 C 4.460938 10.371094 4.332031 10.277344 4.257812 10.113281 C 4.222656 10.035156 4.21875 9.976562 4.207031 9.507812 C 4.199219 9.015625 4.195312 8.984375 4.152344 8.898438 C 4.101562 8.789062 3.996094 8.734375 3.824219 8.71875 L 3.703125 8.707031 L 3.703125 8.246094 L 3.828125 8.234375 C 4.003906 8.21875 4.105469 8.164062 4.15625 8.066406 C 4.191406 7.996094 4.195312 7.953125 4.199219 7.695312 C 4.214844 6.988281 4.21875 6.914062 4.25 6.835938 C 4.296875 6.734375 4.363281 6.664062 4.472656 6.609375 C 4.644531 6.519531 4.746094 6.503906 5.222656 6.492188 L 5.675781 6.484375 L 5.679688 7.78125 C 5.683594 9.039062 5.6875 9.085938 5.722656 9.15625 C 5.789062 9.289062 5.835938 9.308594 6.074219 9.308594 L 6.285156 9.308594 L 6.296875 9.390625 C 6.304688 9.4375 6.308594 9.523438 6.308594 9.582031 L 6.308594 9.691406 L 6.144531 9.714844 C 6.054688 9.726562 5.910156 9.734375 5.816406 9.726562 C 5.519531 9.710938 5.335938 9.605469 5.238281 9.402344 C 5.144531 9.210938 5.136719 9.097656 5.136719 7.960938 L 5.136719 6.917969 L 5.039062 6.929688 C 4.898438 6.949219 4.828125 6.988281 4.789062 7.070312 C 4.761719 7.128906 4.753906 7.203125 4.746094 7.609375 C 4.738281 8.050781 4.734375 8.085938 4.695312 8.167969 C 4.640625 8.28125 4.59375 8.324219 4.429688 8.410156 L 4.296875 8.480469 L 4.40625 8.523438 C 4.542969 8.574219 4.636719 8.652344 4.691406 8.765625 C 4.734375 8.851562 4.738281 8.878906 4.746094 9.335938 C 4.757812 9.855469 4.761719 9.890625 4.863281 9.964844 C 4.890625 9.988281 4.953125 10.007812 5.015625 10.011719 L 5.160156 10.019531 L 5.160156 10.449219 L 4.964844 10.449219 C 4.878906 10.449219 4.757812 10.4375 4.695312 10.421875 Z M 11.773438 10.234375 L 11.773438 10.015625 L 11.902344 10.015625 C 12.023438 10.015625 12.113281 9.96875 12.160156 9.875 C 12.191406 9.808594 12.195312 9.75 12.207031 9.316406 C 12.214844 8.867188 12.21875 8.832031 12.257812 8.757812 C 12.308594 8.664062 12.382812 8.601562 12.539062 8.53125 L 12.652344 8.476562 L 12.546875 8.429688 C 12.421875 8.378906 12.3125 8.28125 12.253906 8.175781 C 12.21875 8.105469 12.214844 8.066406 12.207031 7.621094 C 12.195312 7.179688 12.191406 7.132812 12.15625 7.070312 C 12.113281 6.996094 12.027344 6.945312 11.902344 6.929688 L 11.773438 6.917969 L 11.773438 6.480469 L 12 6.496094 C 12.410156 6.519531 12.613281 6.632812 12.703125 6.867188 C 12.726562 6.933594 12.734375 7.058594 12.742188 7.476562 C 12.753906 7.960938 12.757812 8.011719 12.792969 8.074219 C 12.839844 8.15625 12.972656 8.222656 13.117188 8.238281 L 13.230469 8.246094 L 13.230469 8.707031 L 13.109375 8.71875 C 12.957031 8.730469 12.84375 8.792969 12.792969 8.894531 C 12.757812 8.960938 12.753906 9.011719 12.742188 9.488281 C 12.730469 10.046875 12.722656 10.105469 12.625 10.234375 C 12.53125 10.359375 12.257812 10.449219 11.96875 10.449219 L 11.773438 10.449219 Z M 7.203125 9.742188 C 7.175781 9.738281 7.105469 9.722656 7.042969 9.710938 C 6.890625 9.683594 6.652344 9.566406 6.546875 9.460938 C 6.355469 9.277344 6.25 9.046875 6.214844 8.730469 C 6.171875 8.371094 6.246094 8.011719 6.414062 7.765625 C 6.554688 7.554688 6.769531 7.410156 7.011719 7.359375 C 7.136719 7.332031 7.414062 7.332031 7.539062 7.355469 C 7.796875 7.410156 8.011719 7.578125 8.132812 7.816406 C 8.230469 8.007812 8.261719 8.15625 8.261719 8.425781 L 8.261719 8.65625 L 6.738281 8.65625 L 6.746094 8.726562 C 6.777344 8.960938 6.835938 9.082031 6.96875 9.203125 C 7.085938 9.304688 7.1875 9.335938 7.40625 9.335938 C 7.609375 9.335938 7.816406 9.292969 7.992188 9.207031 L 8.105469 9.152344 L 8.179688 9.542969 L 8.058594 9.601562 C 7.988281 9.632812 7.867188 9.675781 7.789062 9.695312 C 7.648438 9.730469 7.300781 9.757812 7.203125 9.742188 Z M 7.753906 8.195312 C 7.734375 7.949219 7.605469 7.78125 7.402344 7.730469 C 7.085938 7.65625 6.820312 7.867188 6.761719 8.238281 L 6.75 8.316406 L 7.765625 8.316406 Z M 8.9375 9.734375 C 8.660156 9.703125 8.367188 9.601562 8.382812 9.546875 C 8.386719 9.53125 8.398438 9.4375 8.410156 9.339844 C 8.425781 9.246094 8.4375 9.167969 8.441406 9.167969 C 8.445312 9.167969 8.480469 9.183594 8.523438 9.203125 C 8.738281 9.316406 9.164062 9.386719 9.339844 9.335938 C 9.503906 9.292969 9.597656 9.132812 9.539062 8.992188 C 9.5 8.898438 9.414062 8.847656 9.078125 8.707031 C 8.753906 8.574219 8.636719 8.503906 8.523438 8.382812 C 8.339844 8.179688 8.347656 7.757812 8.542969 7.5625 C 8.710938 7.390625 8.929688 7.328125 9.320312 7.34375 C 9.589844 7.351562 9.734375 7.378906 9.933594 7.460938 L 10.007812 7.488281 L 9.941406 7.671875 C 9.90625 7.773438 9.875 7.855469 9.875 7.859375 C 9.871094 7.859375 9.804688 7.839844 9.722656 7.808594 C 9.257812 7.644531 8.894531 7.707031 8.894531 7.957031 C 8.894531 8.074219 9 8.148438 9.351562 8.28125 C 9.738281 8.425781 9.914062 8.542969 10.007812 8.722656 C 10.050781 8.808594 10.058594 8.835938 10.058594 9.027344 C 10.058594 9.214844 10.050781 9.242188 10.003906 9.339844 C 9.917969 9.519531 9.753906 9.644531 9.535156 9.703125 C 9.402344 9.738281 9.109375 9.753906 8.9375 9.734375 Z M 10.722656 9.734375 C 10.546875 9.714844 10.417969 9.683594 10.277344 9.625 L 10.167969 9.582031 L 10.195312 9.378906 C 10.207031 9.265625 10.222656 9.171875 10.226562 9.171875 C 10.226562 9.167969 10.265625 9.183594 10.304688 9.203125 C 10.523438 9.316406 10.949219 9.386719 11.125 9.339844 C 11.238281 9.304688 11.332031 9.214844 11.34375 9.117188 C 11.367188 8.949219 11.269531 8.867188 10.855469 8.703125 C 10.316406 8.488281 10.160156 8.3125 10.183594 7.941406 C 10.199219 7.628906 10.371094 7.445312 10.710938 7.363281 C 10.808594 7.339844 10.902344 7.335938 11.109375 7.34375 C 11.378906 7.351562 11.480469 7.371094 11.6875 7.449219 L 11.796875 7.488281 L 11.730469 7.671875 C 11.695312 7.769531 11.664062 7.855469 11.660156 7.855469 C 11.660156 7.859375 11.574219 7.832031 11.46875 7.796875 C 11.140625 7.6875 10.878906 7.691406 10.75 7.808594 C 10.699219 7.851562 10.691406 7.875 10.691406 7.945312 C 10.691406 8.085938 10.753906 8.132812 11.183594 8.300781 C 11.714844 8.503906 11.867188 8.675781 11.847656 9.058594 C 11.839844 9.277344 11.789062 9.398438 11.667969 9.515625 C 11.5625 9.613281 11.464844 9.667969 11.320312 9.703125 C 11.1875 9.738281 10.894531 9.753906 10.722656 9.734375 Z M 10.722656 9.734375 "/>
</svg>

<svg width="64" height="64" version="1.1" viewBox="0 0 16.933 16.933" xmlns="http://www.w3.org/2000/svg">
 <defs>
  <linearGradient id="a" x1="49.571" x2="51.714" y1="52.714" y2="54.857" gradientTransform="matrix(2.3333,0,0,2.3333,-68.667,-72.001)" gradientUnits="userSpaceOnUse">
   <stop offset="0"/>
   <stop stop-opacity="0" offset="1"/>
  </linearGradient>
 </defs>
 <g transform="scale(.26458)">
  <rect x="8" y="4" width="48" height="56" ry="5" fill="#f4f4f4" style="paint-order:stroke fill markers"/>
  <path d="m56 46-14 14h9c2.77 0 5-2.23 5-5z" fill="url(#a)" fill-rule="evenodd" opacity=".1" stroke-width="8.8191" style="paint-order:stroke fill markers"/>
 </g>
 <path d="m4.696 10.422c-0.23417-0.05164-0.3649-0.14393-0.4396-0.31034-0.03506-0.07811-0.03952-0.13318-0.04893-0.60493-0.0098-0.49288-0.01252-0.52345-0.05333-0.60751-0.05335-0.10988-0.1568-0.16644-0.33028-0.18056l-0.11972-0.0097v-0.46144l0.12557-0.01287c0.17244-0.01767 0.27463-0.07072 0.32534-0.16891 0.03551-0.06874 0.04107-0.11368 0.04592-0.37075 0.01335-0.70713 0.01775-0.78136 0.05093-0.85871 0.04329-0.10089 0.11275-0.17324 0.2193-0.22839 0.17438-0.09026 0.27388-0.10556 0.75301-0.11577l0.4504-0.0096 0.0054 1.2998c0.0052 1.2567 0.0066 1.3023 0.04258 1.3741 0.06635 0.13245 0.11215 0.1522 0.35297 0.1522h0.21065l0.01119 0.08284c0.0062 0.04556 0.01119 0.13174 0.01119 0.1915v0.10865l-0.16215 0.02335c-0.09113 0.01312-0.23576 0.01884-0.33021 0.01304-0.29737-0.01824-0.47954-0.12058-0.57797-0.32468-0.0922-0.19118-0.10032-0.30695-0.10102-1.4412l-6.75e-4 -1.0445-0.09767 0.01314c-0.13978 0.01881-0.21035 0.05786-0.24963 0.13812-0.02919 0.05966-0.03522 0.13504-0.04329 0.54113-0.0088 0.44123-0.0121 0.47743-0.0514 0.55833-0.05451 0.11222-0.10139 0.1552-0.26391 0.24197l-0.13364 0.07134 0.10817 0.04016c0.13895 0.05159 0.23321 0.13152 0.28788 0.24414 0.04128 0.08503 0.04401 0.11457 0.05283 0.57092 0.01005 0.52013 0.01637 0.5545 0.1155 0.62892 0.03069 0.02304 0.09069 0.04122 0.15348 0.0465l0.14463 0.0087v0.4294l-0.195-0.0015c-0.08441-8.25e-4 -0.20523-0.01292-0.2685-0.02687zm7.0779-0.18867v-0.21704l0.12953-3.5e-5c0.12156-3.8e-5 0.21035-0.0492 0.25556-0.14152 0.03307-0.06752 0.03799-0.12629 0.0466-0.55674 9e-3 -0.45187 0.01216-0.48608 0.05122-0.56037 0.04993-0.09498 0.12602-0.15675 0.281-0.22812l0.11571-0.05329-0.10651-0.04479c-0.12678-0.05331-0.23586-0.14841-0.29127-0.25395-0.03743-0.07129-0.041-0.11118-0.05004-0.55804-0.0089-0.43912-0.01304-0.48705-0.04753-0.54731-0.04451-0.07777-0.13214-0.12666-0.25475-0.14213l-0.12953-0.011143v-0.43716l0.22632 0.01294c0.40983 0.02343 0.61386 0.13758 0.70199 0.37433 0.02377 0.06385 0.03228 0.18982 0.04114 0.60894 0.01022 0.48352 0.01435 0.53405 0.04868 0.59449 0.04841 0.08523 0.17871 0.15135 0.32471 0.16478l0.11216 0.01032v0.46141l-0.11933 0.0097c-0.15435 0.01257-0.26416 0.07324-0.31628 0.17474-0.03559 0.06931-0.03968 0.11797-0.04997 0.59449-0.01203 0.55736-0.02164 0.61764-0.11923 0.74743-0.0934 0.12423-0.36785 0.21414-0.65555 0.21475l-0.19464 3.25e-4zm-4.5724-0.4922c-0.02558-0.0046-0.09674-0.01736-0.15813-0.02834-0.15294-0.02737-0.39102-0.14738-0.49654-0.25029-0.19104-0.18632-0.29581-0.41747-0.33259-0.7338-0.04155-0.35742 0.03295-0.71718 0.19984-0.96497 0.14044-0.20852 0.3545-0.35401 0.59765-0.4062 0.12608-0.02706 0.40114-0.02722 0.52836-2.75e-4 0.25563 0.05408 0.47158 0.2216 0.59432 0.46106 0.09626 0.18778 0.12746 0.3369 0.12746 0.60919v0.22998h-1.5231l0.0092 0.07077c0.03026 0.23164 0.08717 0.35312 0.22169 0.47325 0.11626 0.10382 0.21813 0.13539 0.43678 0.13539 0.20441 0 0.4083-0.04515 0.587-0.12998l0.11296-0.05362 0.07446 0.38868-0.12354 0.05777c-0.06795 0.03177-0.18885 0.07471-0.26868 0.09543-0.13902 0.03607-0.48965 0.06353-0.5872 0.04598zm0.55348-1.5462c-0.01933-0.24426-0.14761-0.41331-0.35124-0.46286-0.3172-0.0772-0.5847 0.13363-0.64126 0.50543l-0.0122 0.08021h1.0144zm1.1816 1.5388c-0.27573-0.03183-0.57111-0.13115-0.55561-0.18682 0.0047-0.01694 0.01871-0.10935 0.0311-0.20537s0.02586-0.17457 0.02993-0.17457c0.0041 0 0.03995 0.01685 0.07973 0.03743 0.21599 0.11179 0.64329 0.18126 0.81802 0.13298 0.1661-0.04589 0.25755-0.20427 0.19943-0.3454-0.03818-0.0927-0.12329-0.14501-0.46239-0.28418-0.32202-0.13216-0.44201-0.20247-0.55179-0.32329-0.1863-0.20504-0.17739-0.62559 0.01743-0.82324 0.16852-0.17096 0.38845-0.23284 0.77983-0.21943 0.26771 0.0092 0.41055 0.03681 0.61111 0.11822l0.073009 0.02964-0.064319 0.18256c-0.03537 0.10041-0.066 0.18427-0.06806 0.18635-0.0021 0.0021-0.07058-0.0202-0.15228-0.04953-0.46302-0.16622-0.82734-0.10168-0.82734 0.14656 0 0.11699 0.10743 0.19318 0.45899 0.32551 0.38565 0.14517 0.56179 0.26372 0.65329 0.43971 0.04597 0.08842 0.05042 0.11528 0.05042 0.30457 0 0.18864-0.0047 0.21732-0.05154 0.31407-0.086799 0.17931-0.25112 0.30689-0.46965 0.36463-0.13273 0.03507-0.42631 0.04958-0.59932 0.02961zm1.7859 0c-0.17452-0.02014-0.30368-0.05146-0.44321-0.10744l-0.11267-0.04521 0.02714-0.20233c0.01493-0.11128 0.02924-0.20505 0.03181-0.20837 0.0026-0.0033 0.03836 0.0114 0.07953 0.03271 0.21709 0.11235 0.6449 0.18284 0.81853 0.13486 0.1157-0.03197 0.20757-0.12364 0.22028-0.21981 0.02235-0.16905-0.07268-0.24955-0.49003-0.41511-0.5368-0.21295-0.69357-0.39054-0.67193-0.76117 0.01827-0.31288 0.18748-0.49758 0.53074-0.57932 0.09639-0.02295 0.18869-0.02779 0.39548-0.02073 0.26981 0.0092 0.37183 0.02808 0.5809 0.10744l0.10597 0.04022-0.06489 0.18186c-0.03569 0.10002-0.06676 0.18358-0.06904 0.18568-0.0023 0.0021-0.08849-0.02486-0.19157-0.05991-0.32725-0.11128-0.59016-0.10747-0.72021 0.01041-0.0504 0.04568-0.05973 0.06735-0.05973 0.13864 0 0.14143 0.06612 0.18854 0.49519 0.35282 0.53126 0.2034 0.68178 0.3761 0.66366 0.76144-0.01016 0.21601-0.05838 0.3364-0.18154 0.45328-0.10375 0.09846-0.20186 0.1526-0.3451 0.19045-0.13273 0.03507-0.42631 0.04957-0.59932 0.0296z" enable-background="new" fill="#234db8" stroke-width=".018737"/>
</svg>
